X:28
T:Fig For A Kiss, A
S:The Session: https://thesession.org/tunes/750#setting750
S:https://JamBuddy.live 2025
C:Traditional
R:slip jig
K:D
M:6/8
L:1/8
Q:113
|: G2B E2B BAG| F2A D2A AGF| G2B E2B BAG| B/c/dB AGF DEF|
| G2B E2B BAG| F2A D2A AGF| G2B E2B BAG| B/c/dB AGF E3 :|
|: g2e g2e edB| f2d dcd fed| g2e g2e edB| dBG GBd e2f|
| g2e g2e edB| f2d dcd fed| gfe fed ecA| B/c/dB AGF E2F :|

